X: 164
T: Aşkefzâ Peşrev
C: Hüseyin Sadettin Arel
O: Turkey
F: http://compmusic.upf.edu/node/140
N: askefza--pesrev--ayindevrirevani----huseyin_sadettin_arel
N: makam= askefza
N: form= pesrev
N: usul= ayindevrirevani = 14/8
M: 14/8
L: 1/16
K: C    
Q: 1/4=180
%%MIDI tuningsystem comma53
A4 c2c4B4c4e2 e8  | f4 e2d4e4d4c2 B8  | \
w:  1. HANE  |   | 
A4 c2c4B4c4e2 e8  | 
w:   | 
f4 e2d4c2 d2e4d2 c4 B2c2  | d4 c2B4A2 B2c4B2 A8  | \
w:   |   | 
G2A2 B2c8B4A2 B8  | 
w:   | 
E2F2 G2B8A4G2 A8  | D2E2 F2G8F4E2 E8  | \
w:   |   | 
e4 ^d2e4c4=d2 c2B2 A8  | 
w:  2. HANE  | 
g4 ^f2g4e4=f2 e2d2 e8  | a4 g2f2 e2d4c4d2 e8  | \
w:   |   | 
A4 B2c4B4c4B2 A8  | 
w:   | 
c4 c2c4B4A4B2 G8  | B4 B2B4A4G4A2 F8  | \
w:   |   | 
E2F2 G2A4B4c4B2 c4 A4  | 
w:   | 
e4 ^d2e4B4c4d2 e8  | g2f2 e2f4d4e4d2 c4 B2A2  | \
w:   |   | 
e2d2 c2d4B4c4B2 A8  | 
w:   | 
G2A2 B2c8B4A2 B8  | E2F2 G2B8A4G2 A8  | \
w:   |   | 
D2E2 F2G8F4E2 E8  | 
w:   | 
E4 e2^d4e4f4d2 e8  | a4 ^g2f4e4c'4b2 a8  | \
w:  3. HANE  |   | 
^g2a2 b2c'4b4a4e'2 e'8  | 
w:   | 
d'4 e'2e'2 d'2c'2 b2c'4d'2 d'2c'2 b2a2  | \
w:   | 
^g4 a2b4g4a2 g2f2 e8  | A4 e2e4f2 ^g2e4d2 c2B2 A4  | 
w:   |   | 
B4 c2d4e4c4B2 A4 c4  | B4 A2^G4B4A4G2 A8  | \
w:   |   | 
e4 ^d2e4c4=d2 c2B2 A8  | 
w:  2. HANE  | 
g4 ^f2g4e4=f2 e2d2 e8  | a4 g2f2 e2d4c4d2 e8  | \
w:   |   | 
A4 B2c4B4c4B2 A8  | 
w:   | 
c4 c2c4B4A4B2 G8  | B4 B2B4A4G4A2 F8  | \
w:   |   | 
E2F2 G2A4B4c4B2 c4 A4  | 
w:   | 
e4 ^d2e4B4c4d2 e8  | g2f2 e2f4d4e4d2 c4 B2A2  | \
w:   |   | 
e2d2 c2d4B4c4B2 A8  | 
w:   | 
G2A2 B2c8B4A2 B8  | E2F2 G2B8A4G2 A8  | \
w:   |   | 
D2E2 F2G8F4E2 E8  | 
w:   | 
A4 ^G2A4B4G4F2 E8  | F4 E2D8A4^G2 A4 B4  | \
w:  4. HANE  |   | 
c4 B2A4^G4F4G2 A8  | 
w:   | 
B2A2 ^G2A4B4c2 B2A2 G4 F2E2  | e2^d2 c2B4A4^G4F2 E8  | \
w:   |   | 
^d4 e2e8B4c2 c8  | 
w:   | 
A4 B2B8^G4F2 E8  | ^d4 e2f4e4d4c2 e8  | \
w:   |   | 
d4 d2d4c2 B2e4e2 e4 d2c2  | 
w:   | 
B4 A2^G4A4G4A2 B8  | A4 c2B2 A2^G2 F2G4A2 G2F2 E2D2  | \
w:   |   | 
E4 F2^G4F4G2 F2E2 E8  | 
w:   | 
e4 ^d2e4c4=d2 c2B2 A8  | g4 ^f2g4e4=f2 e2d2 e8  | \
w:  2. HANE  |   | 
a4 g2f2 e2d4c4d2 e8  | 
w:   | 
A4 B2c4B4c4B2 A8  | c4 c2c4B4A4B2 G8  | \
w:   |   | 
B4 B2B4A4G4A2 F8  | 
w:   | 
E2F2 G2A4B4c4B2 c4 A4  | e4 ^d2e4B4c4d2 e8  | \
w:   |   | 
g2f2 e2f4d4e4d2 c4 B2A2  | 
w:   | 
e2d2 c2d4B4c4B2 A8  | G2A2 B2c8B4A2 B8  | \
w:   |   | 
E2F2 G2B8A4G2 A8  | 
w:   | 
D2E2 F2G8F4E2 E8  | |


